X: 1
T: Pint o' Ale is Fain
T: 8x32J 3C
P: Pint o' Ale
C: by Bob McMurtry 2001
C: arr. T. Traub 10-25-2017
M: 6/8
L: 1/8
R: Jig
K: G
D|"G"B3 B^AB|"G"d2 B G2 D|"C"EDE AGE|"G"D3-D2 G|"C"E2 G A2 G|"G"D^CD "E"B2 B|"A"A2 E "C"EFG|"D"A2 F E2 D||
"G"B3 B^AB|"G"d2 B G2 D|"C"EFA c^ce|"G"d3-d2 d|"C"e2 d "Am"cBA|"G"B^AB D2 D|"C"E2 G "D"FGA|"G"G3-G2 A ||
"G"B3 B3| BcB D2 G|"C"E2 G AGE|"G"D3 GAB|"Am"c3 "D"c3|"Am"cdc "D"A2 G|"D"FAc fed|"G"B3 "D"d3||
"G"B3 B3| BcB D2 G|"Em"g2 g "C7"gf=f|"C"e3 "Am"c3|"C"e^de ABc|"G"dba gfe|"D"dDc B2 A|"G"G3-G2 |]

